!!!OTL: Liebesklage Es kommt die Zeit zum Offenbaren,
!!!ARE: Europa, Mitteleuropa, Lothringen, Altripp
!!!SCT: D0003
!!!YEM: Copyright 1995, estate of Helmut Schaffrath.
**kern
*ICvox
*Ivox
*M4/4
*k[f#c#]
*D:
{4a
=1
4a
4a
4g
4a
=2
4ccn
4b
4a
4g}
=3
{4ccn
4b
4a
4g
=4
4a
4fn
2e}
=5
{4a
4a
4d
8e
8fn
=6
4g
8fn
8e
4d
4cn}
=7
{4fn
4g
4a
4g
=8
4fn
4e
4d}
==
!!!AGN: Liebes - Klage
!! Taktwiederholung; Inzipit = Transposition zum Lied
!!!ONB: ESAC (Essen Associative Code) Database: DVA
!!!AMT: simple quadruple
!!!AIN: vox
!!!EED: Helmut Schaffrath
!!!EEV: 1.0
*-
